48x48/apps/1cedt.svg

<svg xmlns="http://www.w3.org/2000/svg" width="48" height="48" version="1.1">
 <circle style="opacity:0.2" cx="24" cy="25" r="20"/>
 <circle style="fill:#f4f4f7" cx="24" cy="24" r="20"/>
 <path style="fill:#f4f4f7;opacity:0.2" d="M 24 4 A 20 20 0 0 0 4 24 A 20 20 0 0 0 4.0214844 24.582031 A 20 20 0 0 1 24 5 A 20 20 0 0 1 43.978516 24.417969 A 20 20 0 0 0 44 24 A 20 20 0 0 0 24 4 z"/>
 <rect style="opacity:0.1" width="2.919" height="8.369" x="31.82" y="-4.65" transform="rotate(30)"/>
 <rect style="opacity:0.1" width="2.919" height="8.369" x="31.83" y="-23.95" transform="matrix(0.8660254,0.5,0.5,-0.8660254,0,0)"/>
 <rect style="fill:#0d65d7" width="2.919" height="8.369" x="31.32" y="-5.51" transform="rotate(30)"/>
 <path style="opacity:0.1" d="m 15.924805,19 -5.773438,10 5.773438,10 H 27.47168 L 33.245118,29 27.47168,19 Z m 1.730469,3 h 8.083984 l 4.041016,7 -4.041016,7 h -8.082031 l -4.042969,-7 z"/>
 <path style="fill:#7f80a1" d="m 15.924805,18 -5.773438,10 5.773438,10 H 27.47168 L 33.245118,28 27.47168,18 Z m 1.730469,3 h 8.083984 l 4.041016,7 -4.041016,7 h -8.082031 l -4.042969,-7 z"/>
 <rect style="fill:#7f80a1" width="2.919" height="8.369" x="31.33" y="-23.08" transform="matrix(0.8660254,0.5,0.5,-0.8660254,0,0)"/>
 <path style="opacity:0.1" d="m 20.528321,11 -5.773438,10 5.775391,10 H 32.075196 L 37.848633,21 32.077149,11 Z m 1.732422,3 h 8.082031 l 4.042969,7 -4.041016,7 h -8.083984 l -4.041016,-7 z"/>
 <path style="fill:#0d65d7" d="m 20.528321,10 -5.773438,10 5.775391,10 H 32.075196 L 37.848633,20 32.077149,10 Z m 1.732422,3 h 8.082031 l 4.042969,7 -4.041016,7 h -8.083984 l -4.041016,-7 z"/>
</svg>

<svg xmlns="http://www.w3.org/2000/svg" width="48" height="48"><circle style="opacity:.2" cx="24" cy="25" r="20"/><circle style="fill:#f4f4f7" cx="24" cy="24" r="20"/><path style="fill:#f4f4f7;opacity:.2" d="M24 4A20 20 0 0 0 4 24a20 20 0 0 0 .021.582A20 20 0 0 1 24 5a20 20 0 0 1 19.979 19.418A20 20 0 0 0 44 24 20 20 0 0 0 24 4z"/><path style="opacity:.1" transform="rotate(30)" d="M31.82-4.65h2.919v8.369H31.82z"/><path style="opacity:.1" transform="scale(1 -1) rotate(-30)" d="M31.83-23.95h2.919v8.369H31.83z"/><path style="fill:#0d65d7" transform="rotate(30)" d="M31.32-5.51h2.919v8.369H31.32z"/><path style="opacity:.1" d="M15.925 19 10.15 29l5.774 10h11.547l5.773-10-5.773-10zm1.73 3h8.084l4.041 7-4.04 7h-8.083l-4.043-7z"/><path style="fill:#7f80a1" d="M15.925 18 10.15 28l5.774 10h11.547l5.773-10-5.773-10zm1.73 3h8.084l4.041 7-4.04 7h-8.083l-4.043-7z"/><path style="fill:#7f80a1" transform="scale(1 -1) rotate(-30)" d="M31.33-23.08h2.919v8.369H31.33z"/><path style="opacity:.1" d="m20.528 11-5.773 10 5.775 10h11.545l5.774-10-5.772-10zm1.733 3h8.082l4.043 7-4.041 7H22.26l-4.041-7z"/><path style="fill:#0d65d7" d="m20.528 10-5.773 10 5.775 10h11.545l5.774-10-5.772-10zm1.733 3h8.082l4.043 7-4.041 7H22.26l-4.041-7z"/></svg>
